X:1
T:The Service of the King
T:The Service of the King
T:S. H. Meyers
T:Julia Harriet Johnston, 1907
T:Public Domain Courtesy of the Cyber Hymnal™
T:Public Domain Courtesy of the Cyber Hymnal™
C:S. H. Meyers
Z:Public Domain
Z:Courtesy of the Cyber Hymnal™
%%score ( 1 2 ) ( 3 4 )
L:1/8
Q:1/4=115
M:4/4
K:Ab
V:1 treble 
V:2 treble 
V:3 bass 
V:4 bass 
V:1
 [CE]2 | [CE]2 [EA]2 [EB]2 [Ec]2 | [DB]2 [DF]4 [DG]>[DA] | [DB]2 [DG]2 [DF]2 [DE]2 | [CE]6 [CE]2 | %5
w: 1.~I|pledge my spir- it|loy- al To the|ser- vice of the|King; The|
w: 2.~There|is no joy so|ho- ly As the|ser- vice of the|King; There’s|
w: 3.~In|yon- der realms im-|mor- tal There is|ser- vice for the|King; We|
 [CE]2 [CF]2 [EG]2 [EA]2 | [EG]2 [EB]4 [EG]>[EG] | [=DF]2 [DA]2 [DG]2 [DF]2 | E6 E2 | %9
w: pri- vi- lege is|roy- al, In the|ser- vice of the|King; I|
w: room for e’en the|low- ly In the|ser- vice of the|King; If|
w: pass the shin- ing|por- tal To the|ser- vice of the|King; A-|
 [Ed]3 [Gd] [Gc]2 [GB]2 | [EB]2 [EA]4 (AG) | [DF]3 [EG] [EA]2 [Ec]2 | [Ec]2 [EB]4 E2 | %13
w: pledge to Him for-|ev- er My *|loft- i- est en-|dea- vor, And|
w: all the world but|knew Him, How *|all would hast- en|to Him, And|
w: mid the glo- ries|o’er Him, Where *|an- gel hosts a-|dore Him, I,|
 E2 [EA]2 [Ec]2 [_Ge]2 | [Fe]2 [Fd]4 [FA]>[_FB] | [Ec]2 [CA]2 [DB]2 [DB]2 | [CA]6 || %17
w: naught my soul shall|se- ver From the|ser- vice of the|King.|
w: high- est ho- nor|do Him, In the|ser- vice of the|King.|
w: too, shall stand be-|fore him, In the|ser- vice of the|King.|
"^Refrain" [CE]>[CA] | [Ec]2 [Ec]2 [=D=B]2 [DB]2 | c6 [EA]2 | [FB]2 [FA]2 [DF]2 [DA]2 | [CE]6 E2 | %22
w: |||||
w: In the|ser- vice of the|King My|sweet- est songs I’ll|sing, While|
w: |||||
 E2 [EA]2 [Ec]2 [_Ge]2 | [Fe]2 [Fd]2 !fermata![Fd]2 [FA]>[_FB] | [Ec]2 [CA]2 [DB]2 [DB]2 | [CA]6 |] %26
w: ||||
w: I with joy my|pow’rs em- ploy, In the|ser- vice of the|King.|
w: ||||
V:2
 x2 | x8 | x8 | x8 | x8 | x8 | x8 | x8 | E6 E2 | x8 | x6 E2 | x8 | x6 E2 | E2 x6 | x8 | x8 | x6 || %17
 x2 | x8 | (E>AG>F E2) x2 | x8 | x6 E2 | E2 x6 | x8 | x8 | x6 |] %26
V:3
 [A,,A,]2 | [A,,A,]2 [C,A,]2 [B,,G,]2 [A,,A,]2 | [D,F,]2 [D,A,]4 E,>[E,F,] | %3
w: ~|~ ~ ~ ~|~ ~ ~ ~|
 [E,G,]2 [E,B,]2 [E,A,]2 [E,G,]2 | [A,,A,]6 [A,,A,]2 | [A,,A,]2 [A,,A,]2 [C,A,]2 [C,A,]2 | %6
w: ~ ~ ~ ~|~ ~|~ ~ ~ ~|
 [B,,B,]2 [B,,G,]4 [B,,B,]>[B,,B,] | [B,,B,]2 [B,,F,]2 [B,,B,]2 [B,,A,]2 | [E,G,]6 [E,G,]2 | %9
w: ~ ~ ~ ~|~ ~ ~ ~|~ ~|
 [E,G,]3 [E,B,] [E,E]2 [E,D]2 | [A,D]2 [A,C]4 [C,A,]2 | [D,A,]3 [D,B,] [C,A,]2 [A,,A,]2 | %12
w: ~ ~ ~ ~|~ ~ ~|~ ~ ~ ~|
 [E,A,]2 [E,G,]4 G,2 | [C,A,]2 [A,,C]2 [A,,A,]2 [C,A,]2 | [D,A,]2 [D,A,]4 [D,D]>[D,A,] | %15
w: ~ ~ ~|~ ~ ~ ~|~ ~ ~ ~|
 [E,A,]2 [E,A,]2 [E,G,]2 [E,G,]2 | [A,,A,]6 || [A,,A,]>[A,,A,] | %18
w: ~ ~ ~ ~|~|~ ~|
 [A,,A,]2 [A,,A,]2 [A,,F,]2 [A,,F,]2 | E,2 A,>A, A,2 [C,A,]2 | [D,D]2 [D,D]2 [D,A,]2 [D,F,]2 | %21
w: ~ ~ ~ ~|~ of the King ~|~ ~ ~ ~|
 A,>G, F,>(A, E,2) G,2 | [C,A,]2 [A,,C]2 [A,,A,]2 [C,A,]2 | %23
w: My songs I’ll sing, * *||
 [D,A,]2 [D,A,]2 !fermata![D,A,]2 [D,D]>[D,A,] | [E,A,]2 [E,A,]2 [E,G,]2 [E,G,]2 | [A,,A,]6 |] %26
w: |||
V:4
 x2 | x8 | x6 E,3/2 x/ | x8 | x8 | x8 | x8 | x8 | x8 | x8 | x8 | x8 | x6 (E,D,) | x8 | x8 | x8 | %16
 x6 || x2 | x8 | A,,6 x2 | x8 | A,,6 (E,D,) | x8 | x8 | x8 | x6 |] %26

